X:1
T:Christmas melody
T:Christmas Present 
T:Johann Pachelbel Arr. Hollyn Fellows 
C:Hollyn Fellows
%%score { 1 | 2 }
L:1/8
Q:1/4=80
M:4/4
K:D
V:1 treble nm="Piano" snm="Pno."
V:2 bass 
V:1
 f4 e4 | d4 c4 | B4 A4 | B4 c4 | f4 e4 | d4 c4 | B4 A4 | B4 c4 | dcdF A2 c2 | d2 f2 a3 b | %10
 gfeg fedc | BAGF E2 A2 | df/g/ af/g/ a/A/B/c/ d/e/f/g/ | fd/e/ fF/G/ A/B/A/G/ A/F/G/A/ | %14
 GB/A/ GF/E/ F/E/D/E/ F/G/A/B/ | GB/A/ Bc/d/ c/B/c/d/ e/f/g/e/ | fd/c/ dF Ac/d/ ec | %17
 Bd/e/ fd ff/e/ dc | BB/A/ Bc df/e/ da | gd/c/ BB AA/G/ FE | !fermata!d8 |] %21
V:2
 D4 A,4 | B,4 F,4 | G,4 D,4 | G,4 A,4 | [D,D]4 [A,,A,]4 | [B,,B,]4 [F,,F,]4 | [G,,G,]4 [D,,D,]4 | %7
 [G,,G,]4 [A,,A,]4 | [B,,B,D]2 [B,,B,D]2 [C,A,C]2 [C,CE]2 | [D,B,D]2 [F,B,D]2 [F,A,E]4 | %10
 [G,B,D]2 [C,E,B,]2 [D,F,D]2 [D,G,B,]2 | [B,,G,B,]2 [D,G,B,]2 [C,A,C]2 [E,A,C]2 | %12
 [B,,B,D]2 [B,,B,D]2 [C,A,C]2 [A,,A,C]2 | [F,A,C]2 [F,A,C]2 [E,A,C]2 [E,A,C]2 | %14
 [B,,D,G,]2 [B,,D,G,]2 [D,A,C]2 [C,A,C]2 | [B,,D,G,]2 [B,,D,G,]2 [C,E,B,]2 [E,G,B,]2 | %16
 [B,,D,F,]4 [C,E,A,]4 | [B,,D,G,]4 [D,F,A,]4 | [B,,D,B,]4 [B,,D,A,]4 | [G,,B,,D,]4 [C,E,A,]4 | %20
 [D,F,A,D]8 |] %21

